img/actions/icon-2.svg

<svg width="58" height="58" viewBox="0 0 58 58" fill="none" xmlns="http://www.w3.org/2000/svg">
<g filter="url(#filter0_b_2709_4304)">
<rect x="1" y="1" width="56" height="56" rx="16" fill="url(#paint0_radial_2709_4304)" fill-opacity="0.2"/>
<rect x="1" y="1" width="56" height="56" rx="16" stroke="url(#paint1_linear_2709_4304)"/>
</g>
<g clip-path="url(#clip0_2709_4304)">
<path fill-rule="evenodd" clip-rule="evenodd" d="M32.9477 16.9573C33.7437 14.1683 37.6963 14.1683 38.4923 16.9573C38.7465 17.848 39.6615 18.3763 40.56 18.1511C43.3734 17.4459 45.3497 20.869 43.3323 22.9528C42.688 23.6183 42.688 24.6749 43.3323 25.3404C45.3497 27.4243 43.3734 30.8473 40.56 30.1421C39.6615 29.9169 38.7465 30.4452 38.4923 31.3359C37.6963 34.125 33.7437 34.125 32.9477 31.3359C32.6935 30.4452 31.7785 29.9169 30.88 30.1421C28.0667 30.8473 26.0903 27.4243 28.1077 25.3404C28.752 24.6749 28.752 23.6183 28.1078 22.9528C26.0903 20.869 28.0667 17.4459 30.88 18.1511C31.7785 18.3763 32.6935 17.848 32.9477 16.9573ZM39.2793 22.1867C39.4855 21.9392 39.4521 21.5714 39.2046 21.3652C38.9571 21.1589 38.5893 21.1924 38.383 21.4399L35.6891 24.6725C35.4007 25.0186 35.2236 25.2289 35.0777 25.3607C35.0101 25.4218 34.9699 25.4461 34.9507 25.4554C34.9468 25.4573 34.944 25.4584 34.9422 25.4591C34.9405 25.4584 34.9377 25.4573 34.9338 25.4554C34.9146 25.4461 34.8744 25.4218 34.8068 25.3607C34.6609 25.2289 34.4838 25.0186 34.1954 24.6725L33.057 23.3065C32.8508 23.059 32.483 23.0256 32.2355 23.2318C31.988 23.4381 31.9545 23.8059 32.1608 24.0534L33.324 25.4492C33.5794 25.7558 33.8097 26.0323 34.0249 26.2265C34.2589 26.4379 34.5538 26.6261 34.9422 26.6261C35.3307 26.6261 35.6256 26.4379 35.8596 26.2265C36.0748 26.0323 36.3051 25.7558 36.5605 25.4492L39.2793 22.1867Z" fill="url(#paint2_linear_2709_4304)"/>
</g>
<g clip-path="url(#clip1_2709_4304)">
<g filter="url(#filter1_b_2709_4304)">
<path fill-rule="evenodd" clip-rule="evenodd" d="M23.4444 17.4971C24.7179 13.0346 31.0421 13.0346 32.3156 17.4971C32.7223 18.9222 34.1865 19.7675 35.624 19.4072C40.1254 18.2788 43.2875 23.7558 40.0596 27.0899C39.0288 28.1547 39.0288 29.8453 40.0596 30.91C43.2875 34.2442 40.1254 39.7211 35.624 38.5928C34.1865 38.2325 32.7223 39.0778 32.3156 40.5028C31.0421 44.9653 24.7179 44.9653 23.4444 40.5028C23.0377 39.0778 21.5736 38.2325 20.136 38.5928C15.6347 39.7211 12.4725 34.2442 15.7004 30.91C16.7312 29.8453 16.7312 28.1547 15.7004 27.0899C12.4725 23.7558 15.6347 18.2788 20.136 19.4072C21.5736 19.7675 23.0377 18.9222 23.4444 17.4971Z" fill="#28D03B" fill-opacity="0.35"/>
<path fill-rule="evenodd" clip-rule="evenodd" d="M23.4444 17.4971C24.7179 13.0346 31.0421 13.0346 32.3156 17.4971C32.7223 18.9222 34.1865 19.7675 35.624 19.4072C40.1254 18.2788 43.2875 23.7558 40.0596 27.0899C39.0288 28.1547 39.0288 29.8453 40.0596 30.91C43.2875 34.2442 40.1254 39.7211 35.624 38.5928C34.1865 38.2325 32.7223 39.0778 32.3156 40.5028C31.0421 44.9653 24.7179 44.9653 23.4444 40.5028C23.0377 39.0778 21.5736 38.2325 20.136 38.5928C15.6347 39.7211 12.4725 34.2442 15.7004 30.91C16.7312 29.8453 16.7312 28.1547 15.7004 27.0899C12.4725 23.7558 15.6347 18.2788 20.136 19.4072C21.5736 19.7675 23.0377 18.9222 23.4444 17.4971Z" stroke="url(#paint3_linear_2709_4304)" stroke-width="0.373333" stroke-linecap="round"/>
</g>
<g filter="url(#filter2_d_2709_4304)">
<path fill-rule="evenodd" clip-rule="evenodd" d="M33.5749 25.8641C33.9049 25.4682 33.8514 24.8796 33.4554 24.5496C33.0594 24.2196 32.4709 24.2731 32.1409 24.6691L27.8307 29.8414C27.3693 30.3951 27.0859 30.7316 26.8525 30.9424C26.7442 31.0402 26.68 31.0791 26.6492 31.094C26.643 31.0971 26.6385 31.0989 26.6357 31.0999C26.6329 31.0989 26.6284 31.0971 26.6222 31.094C26.5914 31.0791 26.5272 31.0402 26.4189 30.9424C26.1855 30.7316 25.9021 30.3951 25.4407 29.8414L23.6194 27.6558C23.2894 27.2598 22.7008 27.2063 22.3048 27.5363C21.9089 27.8663 21.8554 28.4548 22.1853 28.8508L24.0464 31.0841C24.4552 31.5747 24.8237 32.017 25.1679 32.3278C25.5424 32.666 26.0141 32.9672 26.6357 32.9672C27.2573 32.9672 27.729 32.666 28.1035 32.3278C28.4477 32.017 28.8162 31.5747 29.225 31.0841L33.5749 25.8641Z" fill="url(#paint4_linear_2709_4304)"/>
</g>
</g>
<defs>
<filter id="filter0_b_2709_4304" x="-8.46" y="-8.46" width="74.92" height="74.92" filterUnits="userSpaceOnUse" color-interpolation-filters="sRGB">
<feFlood flood-opacity="0" result="BackgroundImageFix"/>
<feGaussianBlur in="BackgroundImageFix" stdDeviation="4.48"/>
<feComposite in2="SourceAlpha" operator="in" result="effect1_backgroundBlur_2709_4304"/>
<feBlend mode="normal" in="SourceGraphic" in2="effect1_backgroundBlur_2709_4304" result="shape"/>
</filter>
<filter id="filter1_b_2709_4304" x="5.23324" y="5.00356" width="45.2935" height="47.9928" filterUnits="userSpaceOnUse" color-interpolation-filters="sRGB">
<feFlood flood-opacity="0" result="BackgroundImageFix"/>
<feGaussianBlur in="BackgroundImageFix" stdDeviation="4.48"/>
<feComposite in2="SourceAlpha" operator="in" result="effect1_backgroundBlur_2709_4304"/>
<feBlend mode="normal" in="SourceGraphic" in2="effect1_backgroundBlur_2709_4304" result="shape"/>
</filter>
<filter id="filter2_d_2709_4304" x="20.7535" y="23.1178" width="16.6843" height="13.496" filterUnits="userSpaceOnUse" color-interpolation-filters="sRGB">
<feFlood flood-opacity="0" result="BackgroundImageFix"/>
<feColorMatrix in="SourceAlpha" type="matrix" values="0 0 0 0 0 0 0 0 0 0 0 0 0 0 0 0 0 0 127 0" result="hardAlpha"/>
<feOffset dx="1.21551" dy="1.21551"/>
<feGaussianBlur stdDeviation="1.21551"/>
<feColorMatrix type="matrix" values="0 0 0 0 0.152941 0 0 0 0 0.784314 0 0 0 0 0.235294 0 0 0 0.5 0"/>
<feBlend mode="normal" in2="BackgroundImageFix" result="effect1_dropShadow_2709_4304"/>
<feBlend mode="normal" in="SourceGraphic" in2="effect1_dropShadow_2709_4304" result="shape"/>
</filter>
<radialGradient id="paint0_radial_2709_4304" cx="0" cy="0" r="1" gradientUnits="userSpaceOnUse" gradientTransform="translate(1 1) rotate(45) scale(79.196)">
<stop stop-color="#FAFAFA"/>
<stop offset="1" stop-color="#F7F7F7" stop-opacity="0"/>
</radialGradient>
<linearGradient id="paint1_linear_2709_4304" x1="29" y1="1" x2="29" y2="57" gradientUnits="userSpaceOnUse">
<stop stop-color="white"/>
<stop offset="1" stop-color="white" stop-opacity="0"/>
</linearGradient>
<linearGradient id="paint2_linear_2709_4304" x1="27.283" y1="33.4277" x2="46.077" y2="17.0716" gradientUnits="userSpaceOnUse">
<stop stop-color="#209440"/>
<stop offset="1" stop-color="#2EFF36"/>
</linearGradient>
<linearGradient id="paint3_linear_2709_4304" x1="14.3807" y1="14.1502" x2="43.9579" y2="41.0103" gradientUnits="userSpaceOnUse">
<stop stop-color="white" stop-opacity="0.25"/>
<stop offset="1" stop-color="white" stop-opacity="0"/>
</linearGradient>
<linearGradient id="paint4_linear_2709_4304" x1="27.9797" y1="34.8066" x2="39.4" y2="19.4779" gradientUnits="userSpaceOnUse">
<stop stop-color="white"/>
<stop offset="1" stop-color="white" stop-opacity="0.2"/>
</linearGradient>
<clipPath id="clip0_2709_4304">
<rect width="18.6667" height="18.6667" fill="white" transform="translate(26.3867 14.8133)"/>
</clipPath>
<clipPath id="clip1_2709_4304">
<rect width="29.8667" height="29.8667" fill="white" transform="translate(12.9467 14.0667)"/>
</clipPath>
</defs>
</svg>

<svg width="58" height="58" viewBox="0 0 58 58" fill="none" xmlns="http://www.w3.org/2000/svg"><g filter="url(#filter0_b_2709_4304)"><rect x="1" y="1" width="56" height="56" rx="16" fill="url(#paint0_radial_2709_4304)" fill-opacity=".2"/><rect x="1" y="1" width="56" height="56" rx="16" stroke="url(#paint1_linear_2709_4304)"/></g><g clip-path="url(#clip0_2709_4304)"><path fill-rule="evenodd" clip-rule="evenodd" d="M32.948 16.957c.796-2.789 4.748-2.789 5.544 0a1.716 1.716 0 002.068 1.194c2.813-.705 4.79 2.718 2.772 4.802a1.716 1.716 0 000 2.387c2.018 2.084.041 5.507-2.772 4.802a1.716 1.716 0 00-2.068 1.194c-.796 2.789-4.748 2.789-5.544 0a1.716 1.716 0 00-2.068-1.194c-2.813.705-4.79-2.718-2.772-4.802a1.716 1.716 0 000-2.387c-2.018-2.084-.041-5.507 2.772-4.802a1.716 1.716 0 002.068-1.194zm6.331 5.23a.583.583 0 10-.896-.747l-2.694 3.232c-.288.347-.465.557-.611.689a.595.595 0 01-.136.098l-.008-.004a.595.595 0 01-.127-.094c-.146-.132-.323-.342-.612-.689l-1.138-1.366a.583.583 0 10-.896.747l1.163 1.396c.255.307.486.583.7.777.235.212.53.4.918.4.389 0 .684-.188.918-.4.215-.194.445-.47.7-.777l2.72-3.262z" fill="url(#paint2_linear_2709_4304)"/></g><g clip-path="url(#clip1_2709_4304)"><g filter="url(#filter1_b_2709_4304)" fill-rule="evenodd" clip-rule="evenodd"><path d="M23.444 17.497c1.274-4.462 7.598-4.462 8.872 0a2.746 2.746 0 003.308 1.91c4.501-1.128 7.663 4.349 4.436 7.683a2.746 2.746 0 000 3.82c3.227 3.334.065 8.811-4.436 7.683a2.746 2.746 0 00-3.308 1.91c-1.274 4.462-7.598 4.462-8.872 0a2.746 2.746 0 00-3.308-1.91c-4.501 1.128-7.663-4.349-4.436-7.683a2.746 2.746 0 000-3.82c-3.227-3.334-.065-8.811 4.436-7.683a2.746 2.746 0 003.308-1.91z" fill="#28D03B" fill-opacity=".35"/><path d="M23.444 17.497c1.274-4.462 7.598-4.462 8.872 0a2.746 2.746 0 003.308 1.91c4.501-1.128 7.663 4.349 4.436 7.683a2.746 2.746 0 000 3.82c3.227 3.334.065 8.811-4.436 7.683a2.746 2.746 0 00-3.308 1.91c-1.274 4.462-7.598 4.462-8.872 0a2.746 2.746 0 00-3.308-1.91c-4.501 1.128-7.663-4.349-4.436-7.683a2.746 2.746 0 000-3.82c-3.227-3.334-.065-8.811 4.436-7.683a2.746 2.746 0 003.308-1.91z" stroke="url(#paint3_linear_2709_4304)" stroke-width=".373" stroke-linecap="round"/></g><g filter="url(#filter2_d_2709_4304)"><path fill-rule="evenodd" clip-rule="evenodd" d="M33.575 25.864a.933.933 0 10-1.434-1.195l-4.31 5.172c-.462.554-.745.89-.979 1.101a.954.954 0 01-.216.158.954.954 0 01-.217-.158c-.233-.21-.517-.547-.978-1.1l-1.822-2.186a.933.933 0 00-1.434 1.195l1.861 2.233c.41.49.778.933 1.122 1.244.374.338.846.64 1.468.64.621 0 1.093-.302 1.468-.64.344-.311.712-.753 1.121-1.244l4.35-5.22z" fill="url(#paint4_linear_2709_4304)"/></g></g><defs><linearGradient id="paint1_linear_2709_4304" x1="29" y1="1" x2="29" y2="57" gradientUnits="userSpaceOnUse"><stop stop-color="#fff"/><stop offset="1" stop-color="#fff" stop-opacity="0"/></linearGradient><linearGradient id="paint2_linear_2709_4304" x1="27.283" y1="33.428" x2="46.077" y2="17.072" gradientUnits="userSpaceOnUse"><stop stop-color="#209440"/><stop offset="1" stop-color="#2EFF36"/></linearGradient><linearGradient id="paint3_linear_2709_4304" x1="14.381" y1="14.15" x2="43.958" y2="41.01" gradientUnits="userSpaceOnUse"><stop stop-color="#fff" stop-opacity=".25"/><stop offset="1" stop-color="#fff" stop-opacity="0"/></linearGradient><linearGradient id="paint4_linear_2709_4304" x1="27.98" y1="34.807" x2="39.4" y2="19.478" gradientUnits="userSpaceOnUse"><stop stop-color="#fff"/><stop offset="1" stop-color="#fff" stop-opacity=".2"/></linearGradient><filter id="filter0_b_2709_4304" x="-8.46" y="-8.46" width="74.92" height="74.92" filterUnits="userSpaceOnUse" color-interpolation-filters="sRGB"><feFlood flood-opacity="0" result="BackgroundImageFix"/><feGaussianBlur in="BackgroundImageFix" stdDeviation="4.48"/><feComposite in2="SourceAlpha" operator="in" result="effect1_backgroundBlur_2709_4304"/><feBlend in="SourceGraphic" in2="effect1_backgroundBlur_2709_4304" result="shape"/></filter><filter id="filter1_b_2709_4304" x="5.233" y="5.004" width="45.294" height="47.993" filterUnits="userSpaceOnUse" color-interpolation-filters="sRGB"><feFlood flood-opacity="0" result="BackgroundImageFix"/><feGaussianBlur in="BackgroundImageFix" stdDeviation="4.48"/><feComposite in2="SourceAlpha" operator="in" result="effect1_backgroundBlur_2709_4304"/><feBlend in="SourceGraphic" in2="effect1_backgroundBlur_2709_4304" result="shape"/></filter><filter id="filter2_d_2709_4304" x="20.753" y="23.118" width="16.684" height="13.496" filterUnits="userSpaceOnUse" color-interpolation-filters="sRGB"><feFlood flood-opacity="0" result="BackgroundImageFix"/><feColorMatrix in="SourceAlpha" values="0 0 0 0 0 0 0 0 0 0 0 0 0 0 0 0 0 0 127 0" result="hardAlpha"/><feOffset dx="1.216" dy="1.216"/><feGaussianBlur stdDeviation="1.216"/><feColorMatrix values="0 0 0 0 0.152941 0 0 0 0 0.784314 0 0 0 0 0.235294 0 0 0 0.5 0"/><feBlend in2="BackgroundImageFix" result="effect1_dropShadow_2709_4304"/><feBlend in="SourceGraphic" in2="effect1_dropShadow_2709_4304" result="shape"/></filter><clipPath id="clip0_2709_4304"><path fill="#fff" transform="translate(26.387 14.813)" d="M0 0h18.667v18.667H0z"/></clipPath><clipPath id="clip1_2709_4304"><path fill="#fff" transform="translate(12.947 14.067)" d="M0 0h29.867v29.867H0z"/></clipPath><radialGradient id="paint0_radial_2709_4304" cx="0" cy="0" r="1" gradientUnits="userSpaceOnUse" gradientTransform="rotate(45 -.707 1.707) scale(79.196)"><stop stop-color="#FAFAFA"/><stop offset="1" stop-color="#F7F7F7" stop-opacity="0"/></radialGradient></defs></svg>ues="0 0 0 0 0.152941 0 0 0 0 0.784314 0 0 0 0 0.235294 0 0 0 0.5 0"/>
<feBlend mode="normal" in2="BackgroundImageFix" result="effect1_dropShadow_2709_4304"/>
<feBlend mode="normal" in="SourceGraphic" in2="effect1_dropShadow_2709_4304" result="shape"/>
</filter>
<radialGradient id="paint0_radial_2709_4304" cx="0" cy="0" r="1" gradientUnits="userSpaceOnUse" gradientTransform="translate(1 1) rotate(45) scale(79.196)">
<stop stop-color="#FAFAFA"/>
<stop offset="1" stop-color="#F7F7F7" stop-opacity="0"/>
</radialGradient>
<linearGradient id="paint1_linear_2709_4304" x1="29" y1="1" x2="29" y2="57" gradientUnits="userSpaceOnUse">
<stop stop-color="white"/>
<stop offset="1" stop-color="white" stop-opacity="0"/>
</linearGradient>
<linearGradient id="paint2_linear_2709_4304" x1="27.283" y1="33.4277" x2="46.077" y2="17.0716" gradientUnits="userSpaceOnUse">
<stop stop-color="#209440"/>
<stop offset="1" stop-color="#2EFF36"/>
</linearGradient>
<linearGradient id="paint3_linear_2709_4304" x1="14.3807" y1="14.1502" x2="43.9579" y2="41.0103" gradientUnits="userSpaceOnUse">
<stop stop-color="white" stop-opacity="0.25"/>
<stop offset="1" stop-color="white" stop-opacity="0"/>
</linearGradient>
<linearGradient id="paint4_linear_2709_4304" x1="27.9797" y1="34.8066" x2="39.4" y2="19.4779" gradientUnits="userSpaceOnUse">
<stop stop-color="white"/>
<stop offset="1" stop-color="white" stop-opacity="0.2"/>
</linearGradient>
<clipPath id="clip0_2709_4304">
<rect width="18.6667" height="18.6667" fill="white" transform="translate(26.3867 14.8133)"/>
</clipPath>
<clipPath id="clip1_2709_4304">
<rect width="29.8667" height="29.8667" fill="white" transform="translate(12.9467 14.0667)"/>
</clipPath>
</defs>
</svg>
